images/LUT_PRESETSSTORE.cube
#Generated by Presets Store
#https://presetsstore.com
TITLE LUT_PRESETSSTORE_25
LUT_3D_SIZE 25
0.090196 0.090196 0.039216
0.070588 0.062745 0.011765
0.098039 0.078431 0.031373
0.137255 0.094118 0.054902
0.145098 0.074510 0.035294
0.247059 0.137255 0.094118
0.219608 0.094118 0.043137
0.192157 0.047059 0.000000
0.290196 0.047059 0.007843
0.325490 0.050980 0.011765
0.396078 0.078431 0.019608
0.349020 0.000000 0.000000
0.549020 0.149020 0.074510
0.517647 0.019608 0.000000
0.611765 0.015686 0.000000
0.662745 0.003922 0.000000
0.733333 0.117647 0.007843
0.768627 0.105882 0.003922
0.792157 0.031373 0.000000
0.807843 0.000000 0.000000
0.854902 0.000000 0.000000
0.949020 0.078431 0.011765
0.894118 0.000000 0.000000
0.988235 0.000000 0.031373
1.000000 0.094118 0.000000
0.000000 0.086275 0.019608
0.035294 0.078431 0.074510
0.070588 0.070588 0.070588
0.113725 0.094118 0.039216
0.180392 0.101961 0.058824
0.145098 0.023529 0.000000
0.223529 0.109804 0.058824
0.247059 0.090196 0.015686
0.294118 0.109804 0.011765
0.392157 0.160784 0.047059
0.411765 0.129412 0.023529
0.380392 0.027451 0.000000
0.525490 0.109804 0.031373
0.494118 0.000000 0.000000
0.647059 0.094118 0.000000
0.690196 0.090196 0.050980
0.654902 0.000000 0.000000
0.760784 0.027451 0.000000
0.823529 0.082353 0.000000
0.823529 0.015686 0.000000
0.941176 0.160784 0.000000
0.952941 0.101961 0.000000
0.960784 0.035294 0.000000
0.956863 0.000000 0.000000
1.000000 0.145098 0.121569
0.031373 0.113725 0.035294
0.082353 0.086275 0.023529
0.039216 0.105882 0.031373
0.090196 0.117647 0.035294
0.164706 0.086275 0.000000
0.211765 0.133333 0.027451
0.219608 0.113725 0.000000
0.254902 0.125490 0.000000
0.325490 0.152941 0.019608
0.356863 0.149020 0.027451
0.360784 0.101961 0.000000
0.443137 0.113725 0.000000
0.521569 0.109804 0.000000
0.545098 0.062745 0.000000
0.572549 0.047059 0.000000
0.701961 0.156863 0.019608
0.721569 0.105882 0.000000
0.745098 0.054902 0.000000
0.776471 0.031373 0.000000
0.886275 0.149020 0.000000
0.862745 0.031373 0.000000
0.960784 0.133333 0.000000
0.988235 0.094118 0.003922
1.000000 0.000000 0.000000
1.000000 0.121569 0.000000
0.121569 0.200000 0.160784
0.007843 0.082353 0.019608
0.050980 0.121569 0.027451
0.149020 0.180392 0.062745
0.113725 0.078431 0.019608
0.231373 0.168627 0.070588
0.239216 0.152941 0.019608
0.286275 0.160784 0.000000
0.337255 0.152941 0.000000
0.454902 0.211765 0.054902
0.411765 0.125490 0.000000
0.458824 0.152941 0.019608
0.466667 0.160784 0.015686
0.572549 0.125490 0.000000
0.568627 0.098039 0.000000
0.650980 0.149020 0.000000
0.698039 0.172549 0.000000
0.721569 0.141176 0.000000
0.749020 0.054902 0.000000
0.901961 0.149020 0.003922
0.847059 0.000000 0.000000
0.964706 0.121569 0.000000
0.980392 0.117647 0.000000
1.000000 0.180392 0.105882
1.000000 0.141176 0.000000
0.000000 0.141176 0.082353
0.000000 0.125490 0.003922
0.054902 0.172549 0.078431
0.050980 0.180392 0.050980
0.125490 0.129412 0.066667
0.203922 0.176471 0.105882
0.227451 0.164706 0.066667
0.317647 0.223529 0.101961
0.305882 0.180392 0.007843
0.360784 0.188235 0.000000
0.490196 0.258824 0.066667
0.431373 0.156863 0.000000
0.568627 0.223529 0.027451
0.576471 0.196078 0.000000
0.576471 0.129412 0.000000
0.658824 0.152941 0.000000
0.694118 0.152941 0.000000
0.788235 0.211765 0.000000
0.745098 0.094118 0.000000
0.870588 0.207843 0.000000
0.913725 0.145098 0.000000
1.000000 0.250980 0.094118
0.921569 0.043137 0.000000
1.000000 0.176471 0.000000
1.000000 0.184314 0.007843
0.000000 0.156863 0.039216
0.000000 0.196078 0.082353
0.007843 0.184314 0.086275
0.000000 0.113725 0.019608
0.180392 0.239216 0.152941
0.141176 0.145098 0.062745
0.172549 0.141176 0.050980
0.270588 0.215686 0.137255
0.301961 0.203922 0.043137
0.423529 0.298039 0.137255
0.333333 0.164706 0.000000
0.435294 0.219608 0.000000
0.509804 0.250980 0.000000
0.498039 0.180392 0.000000
0.611765 0.231373 0.000000
0.666667 0.239216 0.003922
0.717647 0.203922 0.000000
0.815686 0.266667 0.082353
0.764706 0.133333 0.000000
0.839216 0.164706 0.000000
0.933333 0.227451 0.000000
0.980392 0.223529 0.000000
0.988235 0.184314 0.000000
1.000000 0.227451 0.000000
1.000000 0.180392 0.003922
0.000000 0.235294 0.094118
0.000000 0.239216 0.101961
0.000000 0.243137 0.090196
0.039216 0.243137 0.070588
0.011765 0.172549 0.027451
0.184314 0.258824 0.129412
0.160784 0.164706 0.094118
0.184314 0.164706 0.117647
0.282353 0.215686 0.141176
0.372549 0.247059 0.113725
0.384314 0.211765 0.023529
0.505882 0.290196 0.082353
0.474510 0.223529 0.000000
0.588235 0.286275 0.062745
0.600000 0.270588 0.015686
0.643137 0.278431 0.000000
0.729412 0.317647 0.000000
0.788235 0.301961 0.000000
0.807843 0.258824 0.000000
0.800000 0.207843 0.000000
0.882353 0.239216 0.000000
0.964706 0.262745 0.000000
0.996078 0.266667 0.000000
1.000000 0.266667 0.000000
0.996078 0.094118 0.000000
0.000000 0.262745 0.054902
0.000000 0.270588 0.090196
0.000000 0.333333 0.196078
0.000000 0.235294 0.101961
0.000000 0.282353 0.098039
0.066667 0.223529 0.070588
0.137255 0.188235 0.137255
0.247059 0.278431 0.215686
0.235294 0.227451 0.160784
0.274510 0.247059 0.137255
0.392157 0.333333 0.180392
0.411765 0.290196 0.082353
0.498039 0.305882 0.047059
0.568627 0.321569 0.031373
0.658824 0.349020 0.039216
0.596078 0.247059 0.000000
0.733333 0.313725 0.027451
0.784314 0.305882 0.003922
0.843137 0.317647 0.039216
0.768627 0.196078 0.000000
0.949020 0.321569 0.070588
0.960784 0.305882 0.039216
0.929412 0.239216 0.000000
1.000000 0.305882 0.000000
1.000000 0.286275 0.050980
0.000000 0.333333 0.152941
0.000000 0.376471 0.184314
0.000000 0.360784 0.172549
0.000000 0.309804 0.086275
0.000000 0.368627 0.176471
0.000000 0.274510 0.117647
0.133333 0.301961 0.164706
0.196078 0.270588 0.156863
0.247059 0.274510 0.188235
0.203922 0.223529 0.129412
0.337255 0.333333 0.200000
0.427451 0.372549 0.188235
0.423529 0.313725 0.094118
0.564706 0.341176 0.098039
0.600000 0.333333 0.078431
0.666667 0.333333 0.047059
0.725490 0.341176 0.007843
0.768627 0.349020 0.000000
0.835294 0.376471 0.007843
0.854902 0.356863 0.000000
0.839216 0.309804 0.000000
0.945098 0.356863 0.105882
0.905882 0.321569 0.015686
1.000000 0.321569 0.000000
1.000000 0.333333 0.000000
0.000000 0.400000 0.180392
0.000000 0.384314 0.145098
0.000000 0.380392 0.149020
0.000000 0.392157 0.164706
0.000000 0.364706 0.090196
0.000000 0.388235 0.149020
0.000000 0.317647 0.113725
0.207843 0.356863 0.188235
0.305882 0.372549 0.235294
0.313725 0.333333 0.223529
0.360784 0.349020 0.254902
0.364706 0.337255 0.258824
0.392157 0.321569 0.152941
0.501961 0.384314 0.203922
0.588235 0.403922 0.188235
0.662745 0.415686 0.160784
0.698039 0.392157 0.090196
0.737255 0.364706 0.000000
0.835294 0.403922 0.070588
0.898039 0.419608 0.105882
0.870588 0.341176 0.000000
0.996078 0.435294 0.152941
1.000000 0.411765 0.121569
1.000000 0.411765 0.129412
1.000000 0.352941 0.011765
0.000000 0.372549 0.156863
0.000000 0.372549 0.141176
0.000000 0.407843 0.164706
0.000000 0.403922 0.149020
0.000000 0.427451 0.180392
0.000000 0.384314 0.156863
0.000000 0.368627 0.156863
0.156863 0.396078 0.196078
0.227451 0.360784 0.156863
0.286275 0.368627 0.200000
0.376471 0.400000 0.278431
0.345098 0.321569 0.223529
0.439216 0.380392 0.274510
0.415686 0.333333 0.188235
0.564706 0.450980 0.262745
0.600000 0.458824 0.250980
0.658824 0.419608 0.078431
0.764706 0.478431 0.164706
0.788235 0.447059 0.133333
0.835294 0.435294 0.133333
0.862745 0.423529 0.090196
0.949020 0.462745 0.141176
0.894118 0.360784 0.000000
0.984314 0.423529 0.035294
1.000000 0.435294 0.168627
0.000000 0.482353 0.192157
0.000000 0.454902 0.160784
0.000000 0.443137 0.172549
0.000000 0.439216 0.160784
0.000000 0.454902 0.196078
0.000000 0.423529 0.113725
0.000000 0.454902 0.188235
0.117647 0.447059 0.176471
0.164706 0.400000 0.149020
0.309804 0.431373 0.215686
0.364706 0.415686 0.247059
0.337255 0.352941 0.211765
0.439216 0.435294 0.305882
0.423529 0.411765 0.262745
0.490196 0.458824 0.298039
0.576471 0.443137 0.262745
0.607843 0.427451 0.231373
0.678431 0.439216 0.215686
0.784314 0.482353 0.223529
0.850980 0.505882 0.196078
0.882353 0.486275 0.141176
0.905882 0.458824 0.094118
0.952941 0.474510 0.101961
0.952941 0.450980 0.113725
1.000000 0.498039 0.235294
0.000000 0.545098 0.188235
0.000000 0.568627 0.215686
0.000000 0.458824 0.168627
0.000000 0.501961 0.243137
0.000000 0.541176 0.243137
0.000000 0.525490 0.282353
0.000000 0.498039 0.235294
0.000000 0.427451 0.156863
0.176471 0.494118 0.215686
0.215686 0.403922 0.133333
0.329412 0.447059 0.200000
0.372549 0.435294 0.247059
0.411765 0.435294 0.305882
0.470588 0.466667 0.380392
0.490196 0.458824 0.364706
0.529412 0.462745 0.352941
0.627451 0.494118 0.360784
0.639216 0.458824 0.274510
0.780392 0.549020 0.317647
0.796078 0.525490 0.247059
0.839216 0.529412 0.196078
0.827451 0.478431 0.125490
1.000000 0.580392 0.219608
0.980392 0.501961 0.129412
1.000000 0.529412 0.227451
0.000000 0.588235 0.231373
0.000000 0.505882 0.152941
0.000000 0.501961 0.219608
0.000000 0.549020 0.250980
0.000000 0.525490 0.235294
0.000000 0.576471 0.254902
0.000000 0.552941 0.227451
0.000000 0.541176 0.223529
0.000000 0.549020 0.254902
0.137255 0.501961 0.235294
0.345098 0.549020 0.317647
0.407843 0.478431 0.270588
0.525490 0.494118 0.298039
0.478431 0.501961 0.333333
0.490196 0.478431 0.333333
0.596078 0.549020 0.431373
0.619608 0.533333 0.419608
0.623529 0.501961 0.356863
0.650980 0.494118 0.282353
0.776471 0.560784 0.294118
0.862745 0.603922 0.301961
0.933333 0.576471 0.290196
0.956863 0.584314 0.282353
0.980392 0.552941 0.211765
1.000000 0.509804 0.180392
0.000000 0.647059 0.250980
0.000000 0.607843 0.274510
0.000000 0.541176 0.223529
0.000000 0.572549 0.290196
0.000000 0.650980 0.325490
0.000000 0.635294 0.305882
0.000000 0.552941 0.219608
0.000000 0.611765 0.278431
0.000000 0.545098 0.196078
0.098039 0.576471 0.247059
0.321569 0.603922 0.298039
0.368627 0.568627 0.274510
0.470588 0.584314 0.356863
0.431373 0.494118 0.305882
0.552941 0.556863 0.423529
0.549020 0.509804 0.407843
0.588235 0.529412 0.423529
0.619608 0.537255 0.403922
0.686275 0.580392 0.403922
0.756863 0.627451 0.427451
0.784314 0.564706 0.321569
0.886275 0.650980 0.392157
0.905882 0.623529 0.356863
0.956863 0.639216 0.345098
1.000000 0.686275 0.360784
0.000000 0.615686 0.278431
0.000000 0.592157 0.247059
0.000000 0.674510 0.329412
0.000000 0.596078 0.243137
0.000000 0.584314 0.227451
0.000000 0.592157 0.223529
0.000000 0.635294 0.270588
0.000000 0.631373 0.266667
0.000000 0.549020 0.188235
0.000000 0.615686 0.282353
0.180392 0.596078 0.286275
0.262745 0.549020 0.258824
0.392157 0.572549 0.313725
0.509804 0.603922 0.372549
0.525490 0.552941 0.349020
0.568627 0.552941 0.360784
0.564706 0.576471 0.458824
0.584314 0.545098 0.435294
0.615686 0.517647 0.400000
0.733333 0.603922 0.450980
0.811765 0.654902 0.458824
0.788235 0.600000 0.345098
0.882353 0.650980 0.352941
0.894118 0.639216 0.309804
1.000000 0.662745 0.423529
0.000000 0.647059 0.329412
0.000000 0.682353 0.301961
0.000000 0.682353 0.290196
0.000000 0.674510 0.274510
0.000000 0.678431 0.325490
0.000000 0.658824 0.294118
0.000000 0.643137 0.286275
0.000000 0.623529 0.231373
0.000000 0.717647 0.329412
0.000000 0.592157 0.192157
0.070588 0.678431 0.317647
0.274510 0.662745 0.341176
0.364706 0.631373 0.349020
0.396078 0.568627 0.301961
0.466667 0.584314 0.325490
0.549020 0.607843 0.396078
0.611765 0.623529 0.454902
0.607843 0.572549 0.443137
0.643137 0.564706 0.466667
0.678431 0.576471 0.486275
0.749020 0.635294 0.513725
0.866667 0.725490 0.576471
0.823529 0.658824 0.490196
0.929412 0.698039 0.470588
0.949020 0.682353 0.431373
0.000000 0.717647 0.356863
0.000000 0.678431 0.270588
0.000000 0.749020 0.349020
0.000000 0.662745 0.286275
0.000000 0.682353 0.305882
0.000000 0.713725 0.392157
0.000000 0.694118 0.290196
0.000000 0.690196 0.294118
0.000000 0.752941 0.372549
0.000000 0.729412 0.345098
0.000000 0.713725 0.345098
0.223529 0.698039 0.337255
0.333333 0.658824 0.321569
0.443137 0.694118 0.368627
0.474510 0.639216 0.356863
0.549020 0.670588 0.407843
0.596078 0.658824 0.427451
0.666667 0.682353 0.482353
0.654902 0.647059 0.474510
0.647059 0.603922 0.450980
0.756863 0.670588 0.549020
0.811765 0.705882 0.588235
0.839216 0.745098 0.607843
0.847059 0.690196 0.537255
0.980392 0.737255 0.533333
0.000000 0.764706 0.419608
0.000000 0.737255 0.325490
0.000000 0.752941 0.396078
0.000000 0.737255 0.360784
0.000000 0.752941 0.360784
0.000000 0.768627 0.407843
0.000000 0.764706 0.372549
0.000000 0.721569 0.298039
0.000000 0.690196 0.262745
0.000000 0.780392 0.376471
0.000000 0.682353 0.294118
0.062745 0.713725 0.317647
0.200000 0.713725 0.313725
0.396078 0.725490 0.356863
0.458824 0.709804 0.384314
0.521569 0.674510 0.396078
0.623529 0.694118 0.478431
0.690196 0.713725 0.541176
0.729412 0.705882 0.564706
0.721569 0.662745 0.549020
0.776471 0.686275 0.592157
0.756863 0.698039 0.584314
0.815686 0.725490 0.576471
0.803922 0.760784 0.607843
0.862745 0.745098 0.580392
0.000000 0.827451 0.384314
0.000000 0.780392 0.356863
0.000000 0.835294 0.427451
0.000000 0.815686 0.407843
0.000000 0.749020 0.349020
0.000000 0.768627 0.364706
0.000000 0.811765 0.392157
0.000000 0.776471 0.349020
0.000000 0.807843 0.376471
0.000000 0.780392 0.352941
0.000000 0.776471 0.364706
0.000000 0.776471 0.388235
0.200000 0.745098 0.329412
0.341176 0.772549 0.392157
0.407843 0.741176 0.403922
0.564706 0.792157 0.501961
0.588235 0.749020 0.490196
0.650980 0.741176 0.517647
0.745098 0.760784 0.564706
0.733333 0.705882 0.529412
0.717647 0.713725 0.584314
0.800000 0.764706 0.635294
0.811765 0.737255 0.611765
0.886275 0.776471 0.643137
0.890196 0.745098 0.615686
0.000000 0.800000 0.411765
0.000000 0.811765 0.423529
0.000000 0.819608 0.439216
0.000000 0.803922 0.411765
0.000000 0.823529 0.423529
0.000000 0.835294 0.423529
0.000000 0.823529 0.396078
0.000000 0.796078 0.364706
0.000000 0.831373 0.407843
0.000000 0.749020 0.325490
0.000000 0.784314 0.356863
0.000000 0.827451 0.396078
0.215686 0.823529 0.415686
0.341176 0.807843 0.435294
0.368627 0.737255 0.407843
0.494118 0.792157 0.501961
0.596078 0.784314 0.478431
0.615686 0.756863 0.486275
0.682353 0.764706 0.537255
0.792157 0.827451 0.650980
0.733333 0.733333 0.584314
0.796078 0.760784 0.631373
0.811765 0.733333 0.627451
0.862745 0.764706 0.662745
0.886275 0.807843 0.529412
0.000000 0.890196 0.560784
0.000000 0.858824 0.474510
0.000000 0.843137 0.431373
0.000000 0.835294 0.415686
0.000000 0.847059 0.478431
0.000000 0.874510 0.478431
0.000000 0.866667 0.462745
0.000000 0.894118 0.521569
0.000000 0.815686 0.419608
0.000000 0.909804 0.482353
0.000000 0.847059 0.396078
0.000000 0.850980 0.411765
0.003922 0.866667 0.443137
0.243137 0.847059 0.427451
0.341176 0.858824 0.435294
0.490196 0.862745 0.486275
0.505882 0.811765 0.462745
0.643137 0.866667 0.541176
0.737255 0.894118 0.600000
0.741176 0.843137 0.572549
0.784314 0.815686 0.584314
0.827451 0.803922 0.611765
0.878431 0.811765 0.639216
0.850980 0.768627 0.619608
0.968627 0.843137 0.662745
0.000000 0.909804 0.635294
0.000000 0.937255 0.592157
0.000000 0.921569 0.517647
0.000000 0.945098 0.533333
0.000000 0.898039 0.474510
0.000000 0.929412 0.529412
0.000000 0.905882 0.431373
0.000000 0.968627 0.521569
0.000000 0.831373 0.407843
0.000000 0.894118 0.486275
0.000000 0.882353 0.466667
0.000000 0.921569 0.501961
0.000000 0.854902 0.431373
0.266667 0.905882 0.478431
0.329412 0.898039 0.486275
0.411765 0.886275 0.501961
0.478431 0.847059 0.498039
0.576471 0.843137 0.541176
0.682353 0.878431 0.607843
0.803922 0.913725 0.686275
0.792157 0.831373 0.635294
0.894118 0.886275 0.705882
0.815686 0.815686 0.658824
1.000000 0.894118 0.725490
0.905882 0.803922 0.552941
0.000000 0.984314 0.647059
0.000000 0.937255 0.509804
0.000000 0.925490 0.541176
0.000000 0.972549 0.572549
0.000000 0.870588 0.470588
0.000000 0.949020 0.580392
0.000000 0.933333 0.537255
0.000000 0.949020 0.517647
0.000000 0.898039 0.462745
0.000000 1.000000 0.592157
0.000000 0.917647 0.517647
0.000000 0.968627 0.556863
0.000000 0.866667 0.450980
0.309804 0.941176 0.552941
0.419608 0.952941 0.576471
0.517647 0.933333 0.556863
0.517647 0.843137 0.470588
0.631373 0.882353 0.533333
0.756863 0.956863 0.639216
0.733333 0.890196 0.603922
0.768627 0.890196 0.631373
0.866667 0.894118 0.694118
0.870588 0.839216 0.631373
0.882353 0.866667 0.686275
0.956863 0.862745 0.690196
0.000000 1.000000 0.666667
0.000000 0.972549 0.611765
0.000000 1.000000 0.631373
0.000000 0.968627 0.572549
0.000000 1.000000 0.674510
0.000000 0.941176 0.572549
0.000000 0.960784 0.576471
0.000000 1.000000 0.615686
0.000000 0.929412 0.509804
0.000000 0.894118 0.470588
0.090196 1.000000 0.615686
0.188235 0.980392 0.584314
0.000000 0.960784 0.513725
0.196078 0.964706 0.525490
0.392157 0.992157 0.560784
0.458824 0.933333 0.521569
0.584314 0.960784 0.584314
0.643137 0.933333 0.600000
0.764706 0.972549 0.690196
0.819608 0.964706 0.717647
0.882353 0.949020 0.752941
0.847059 0.894118 0.705882
0.929412 0.945098 0.764706
0.972549 0.941176 0.776471
1.000000 0.960784 0.807843
0.105882 0.090196 0.070588
0.121569 0.105882 0.086275
0.109804 0.086275 0.066667
0.133333 0.086275 0.066667
0.184314 0.109804 0.090196
0.141176 0.031373 0.015686
0.254902 0.113725 0.090196
0.282353 0.109804 0.098039
0.298039 0.070588 0.058824
0.400000 0.137255 0.121569
0.415686 0.078431 0.070588
0.447059 0.047059 0.023529
0.505882 0.058824 0.007843
0.537255 0.031373 0.000000
0.592157 0.011765 0.000000
0.635294 0.011765 0.000000
0.760784 0.027451 0.000000
0.819608 0.058824 0.007843
0.843137 0.000000 0.000000
0.862745 0.000000 0.000000
0.850980 0.000000 0.000000
0.984314 0.039216 0.043137
1.000000 0.058824 0.039216
1.000000 0.000000 0.000000
1.000000 0.000000 0.019608
0.019608 0.086275 0.050980
0.000000 0.019608 0.000000
0.043137 0.058824 0.027451
0.156863 0.137255 0.090196
0.160784 0.054902 0.047059
0.188235 0.043137 0.000000
0.235294 0.094118 0.015686
0.282353 0.058824 0.019608
0.345098 0.094118 0.043137
0.360784 0.070588 0.015686
0.403922 0.070588 0.019608
0.392157 0.000000 0.000000
0.505882 0.039216 0.000000
0.552941 0.000000 0.000000
0.592157 0.000000 0.000000
0.658824 0.000000 0.000000
0.745098 0.039216 0.000000
0.776471 0.000000 0.000000
0.811765 0.000000 0.007843
0.819608 0.000000 0.000000
0.905882 0.050980 0.027451
0.956863 0.070588 0.000000
0.933333 0.000000 0.000000
1.000000 0.094118 0.058824
0.980392 0.000000 0.000000
0.011765 0.062745 0.000000
0.090196 0.101961 0.047059
0.027451 0.047059 0.000000
0.105882 0.109804 0.074510
0.074510 0.027451 0.000000
0.262745 0.145098 0.121569
0.215686 0.094118 0.015686
0.305882 0.141176 0.078431
0.305882 0.086275 0.023529
0.384314 0.117647 0.054902
0.407843 0.101961 0.015686
0.490196 0.141176 0.039216
0.494118 0.078431 0.000000
0.580392 0.133333 0.019608
0.690196 0.141176 0.015686
0.686275 0.086275 0.000000
0.729412 0.039216 0.000000
0.815686 0.098039 0.000000
0.850980 0.066667 0.000000
0.878431 0.019608 0.000000
0.886275 0.000000 0.000000
0.882353 0.000000 0.000000
1.000000 0.149020 0.101961
1.000000 0.000000 0.003922
1.000000 0.137255 0.090196
0.031373 0.129412 0.078431
0.011765 0.129412 0.043137
0.066667 0.160784 0.117647
0.078431 0.117647 0.070588
0.168627 0.133333 0.109804
0.149020 0.145098 0.047059
0.188235 0.129412 0.019608
0.333333 0.200000 0.078431
0.325490 0.156863 0.007843
0.341176 0.141176 0.000000
0.396078 0.149020 0.000000
0.501961 0.168627 0.007843
0.592157 0.192157 0.043137
0.560784 0.137255 0.000000
0.635294 0.188235 0.027451
0.619608 0.101961 0.000000
0.784314 0.227451 0.078431
0.709804 0.058824 0.000000
0.792157 0.066667 0.000000
0.850980 0.000000 0.000000
0.976471 0.109804 0.031373
0.960784 0.145098 0.000000
1.000000 0.192157 0.090196
1.000000 0.105882 0.015686
1.000000 0.172549 0.145098
0.003922 0.141176 0.086275
0.011765 0.149020 0.094118
0.035294 0.141176 0.058824
0.054902 0.160784 0.066667
0.098039 0.125490 0.027451
0.211765 0.207843 0.109804
0.254902 0.203922 0.094118
0.235294 0.149020 0.015686
0.349020 0.227451 0.078431
0.345098 0.172549 0.003922
0.466667 0.223529 0.078431
0.431373 0.137255 0.000000
0.603922 0.211765 0.078431
0.631373 0.203922 0.058824
0.611765 0.117647 0.000000
0.713725 0.176471 0.000000
0.737255 0.160784 0.000000
0.803922 0.192157 0.000000
0.827451 0.172549 0.000000
0.913725 0.223529 0.000000
0.886275 0.090196 0.000000
0.921569 0.109804 0.000000
0.996078 0.168627 0.000000
0.980392 0.098039 0.000000
1.000000 0.196078 0.019608
0.000000 0.188235 0.078431
0.000000 0.196078 0.101961
0.000000 0.133333 0.050980
0.090196 0.164706 0.101961
0.160784 0.172549 0.117647
0.172549 0.145098 0.082353
0.223529 0.168627 0.105882
0.258824 0.180392 0.117647
0.301961 0.180392 0.039216
0.352941 0.196078 0.047059
0.439216 0.231373 0.086275
0.454902 0.203922 0.015686
0.517647 0.223529 0.000000
0.600000 0.250980 0.015686
0.670588 0.254902 0.023529
0.666667 0.196078 0.000000
0.690196 0.203922 0.000000
0.772549 0.235294 0.000000
0.784314 0.184314 0.000000
0.862745 0.215686 0.000000
0.858824 0.172549 0.000000
0.905882 0.180392 0.000000
0.980392 0.200000 0.000000
1.000000 0.192157 0.011765
1.000000 0.211765 0.082353
0.000000 0.243137 0.113725
0.000000 0.250980 0.117647
0.047059 0.341176 0.200000
0.000000 0.207843 0.031373
0.086275 0.235294 0.105882
0.188235 0.239216 0.125490
0.164706 0.168627 0.098039
0.188235 0.192157 0.156863
0.266667 0.239216 0.160784
0.352941 0.270588 0.133333
0.352941 0.219608 0.023529
0.529412 0.341176 0.145098
0.525490 0.270588 0.062745
0.627451 0.313725 0.117647
0.607843 0.258824 0.027451
0.705882 0.286275 0.000000
0.749020 0.278431 0.000000
0.784314 0.254902 0.000000
0.839216 0.258824 0.000000
0.847059 0.223529 0.000000
0.933333 0.270588 0.047059
0.952941 0.227451 0.058824
1.000000 0.254902 0.129412
0.980392 0.215686 0.015686
1.000000 0.270588 0.172549
0.000000 0.317647 0.156863
0.000000 0.317647 0.164706
0.000000 0.278431 0.133333
0.000000 0.223529 0.054902
0.000000 0.317647 0.094118
0.066667 0.274510 0.066667
0.215686 0.286275 0.188235
0.254902 0.282353 0.203922
0.235294 0.219608 0.145098
0.301961 0.235294 0.160784
0.392157 0.286275 0.180392
0.478431 0.309804 0.168627
0.552941 0.313725 0.133333
0.607843 0.317647 0.109804
0.611765 0.298039 0.011765
0.631373 0.278431 0.000000
0.772549 0.349020 0.101961
0.760784 0.294118 0.000000
0.839216 0.321569 0.015686
0.858824 0.305882 0.000000
0.964706 0.364706 0.066667
1.000000 0.360784 0.066667
0.941176 0.258824 0.000000
1.000000 0.317647 0.000000
0.984314 0.290196 0.000000
0.000000 0.349020 0.160784
0.000000 0.333333 0.109804
0.000000 0.356863 0.141176
0.000000 0.325490 0.074510
0.000000 0.368627 0.145098
0.090196 0.341176 0.137255
0.188235 0.349020 0.176471
0.250980 0.313725 0.188235
0.298039 0.317647 0.223529
0.301961 0.305882 0.227451
0.333333 0.309804 0.211765
0.411765 0.325490 0.200000
0.462745 0.337255 0.180392
0.584314 0.384314 0.141176
0.596078 0.349020 0.074510
0.666667 0.360784 0.035294
0.701961 0.341176 0.000000
0.764706 0.356863 0.000000
0.890196 0.439216 0.117647
0.819608 0.329412 0.000000
0.913725 0.392157 0.117647
0.988235 0.403922 0.101961
0.960784 0.372549 0.074510
1.000000 0.407843 0.109804
1.000000 0.301961 0.000000
0.000000 0.439216 0.215686
0.000000 0.498039 0.250980
0.000000 0.345098 0.066667
0.000000 0.388235 0.121569
0.000000 0.407843 0.152941
0.000000 0.333333 0.098039
0.176471 0.376471 0.184314
0.282353 0.372549 0.219608
0.305882 0.337255 0.211765
0.352941 0.349020 0.254902
0.333333 0.305882 0.235294
0.372549 0.333333 0.274510
0.474510 0.407843 0.298039
0.545098 0.423529 0.294118
0.572549 0.388235 0.211765
0.678431 0.427451 0.207843
0.709804 0.407843 0.137255
0.796078 0.427451 0.137255
0.835294 0.407843 0.125490
0.866667 0.400000 0.133333
0.921569 0.423529 0.086275
0.972549 0.447059 0.133333
0.992157 0.427451 0.113725
1.000000 0.474510 0.200000
1.000000 0.368627 0.062745
0.000000 0.435294 0.172549
0.000000 0.400000 0.129412
0.000000 0.494118 0.219608
0.000000 0.411765 0.129412
0.000000 0.450980 0.180392
0.000000 0.403922 0.152941
0.062745 0.443137 0.215686
0.078431 0.380392 0.156863
0.258824 0.372549 0.133333
0.298039 0.380392 0.192157
