images/LUT_PRESETSSTORE.cube
#Generated by Presets Store
#https://presetsstore.com
TITLE LUT_PRESETSSTORE_25
LUT_3D_SIZE 5
0.090196 0.090196 0.039216
0.219608 0.094118 0.043137
0.549020 0.149020 0.074510
0.792157 0.031373 0.000000
1.000000 0.094118 0.000000
0.000000 0.235294 0.094118
0.160784 0.164706 0.094118
0.474510 0.223529 0.000000
0.807843 0.258824 0.000000
0.996078 0.094118 0.000000
0.000000 0.545098 0.188235
0.000000 0.498039 0.235294
0.411765 0.435294 0.305882
0.780392 0.549020 0.317647
1.000000 0.529412 0.227451
0.000000 0.764706 0.419608
0.000000 0.764706 0.372549
0.200000 0.713725 0.313725
0.729412 0.705882 0.564706
0.862745 0.745098 0.580392
0.000000 1.000000 0.666667
0.000000 0.960784 0.576471
0.000000 0.960784 0.513725
0.764706 0.972549 0.690196
1.000000 0.960784 0.807843
0.098039 0.039216 0.207843
0.247059 0.039216 0.223529
0.580392 0.000000 0.227451
0.862745 0.000000 0.247059
1.000000 0.000000 0.278431
0.145098 0.290196 0.254902
0.278431 0.282353 0.247059
0.564706 0.239216 0.200000
0.807843 0.239216 0.203922
1.000000 0.231373 0.203922
0.000000 0.494118 0.290196
0.000000 0.505882 0.278431
0.490196 0.509804 0.415686
0.796078 0.549020 0.352941
1.000000 0.549020 0.282353
0.000000 0.776471 0.490196
0.000000 0.784314 0.447059
0.384314 0.784314 0.486275
0.717647 0.694118 0.560784
0.964706 0.800000 0.631373
0.000000 1.000000 0.600000
0.000000 1.000000 0.658824
0.317647 0.968627 0.611765
0.717647 0.949020 0.631373
0.952941 0.929412 0.796078
0.086275 0.023529 0.470588
0.231373 0.000000 0.450980
0.486275 0.000000 0.447059
0.819608 0.000000 0.486275
1.000000 0.000000 0.478431
0.000000 0.188235 0.427451
0.184314 0.215686 0.474510
0.560784 0.172549 0.478431
0.894118 0.223529 0.509804
1.000000 0.223529 0.505882
0.172549 0.525490 0.501961
0.270588 0.498039 0.423529
0.537255 0.498039 0.431373
0.796078 0.486275 0.458824
1.000000 0.498039 0.458824
0.270588 0.760784 0.568627
0.294118 0.756863 0.552941
0.474510 0.764706 0.576471
0.741176 0.729412 0.619608
1.000000 0.831373 0.713725
0.207843 1.000000 0.654902
0.333333 0.988235 0.709804
0.415686 0.988235 0.670588
0.686275 0.933333 0.666667
0.945098 0.917647 0.803922
0.086275 0.007843 0.678431
0.250980 0.000000 0.686275
0.513725 0.000000 0.701961
0.803922 0.000000 0.713725
1.000000 0.000000 0.760784
0.000000 0.188235 0.670588
0.188235 0.168627 0.678431
0.568627 0.117647 0.729412
0.835294 0.003922 0.717647
1.000000 0.105882 0.721569
0.043137 0.525490 0.729412
0.176471 0.466667 0.678431
0.513725 0.427451 0.717647
0.807843 0.423529 0.690196
1.000000 0.419608 0.721569
0.207843 0.694118 0.576471
0.447059 0.729412 0.674510
0.631373 0.768627 0.729412
0.847059 0.788235 0.745098
1.000000 0.772549 0.737255
0.482353 0.960784 0.701961
0.588235 0.996078 0.811765
0.611765 1.000000 0.823529
0.764706 0.988235 0.788235
1.000000 0.992157 0.921569
0.011765 0.007843 0.941176
0.247059 0.000000 0.992157
0.490196 0.000000 0.949020
0.776471 0.000000 0.964706
1.000000 0.000000 0.992157
0.000000 0.062745 0.960784
0.160784 0.039216 1.000000
0.498039 0.000000 0.980392
0.796078 0.000000 0.980392
1.000000 0.000000 0.941176
0.000000 0.407843 0.964706
0.000000 0.427451 0.964706
0.403922 0.352941 0.984314
0.788235 0.368627 1.000000
1.000000 0.329412 0.956863
0.000000 0.764706 0.992157
0.000000 0.666667 0.925490
0.462745 0.729412 1.000000
0.666667 0.631373 0.913725
1.000000 0.717647 0.992157
0.478431 1.000000 0.992157
0.580392 0.996078 0.988235
0.643137 1.000000 0.964706
0.850980 0.988235 0.949020
1.000000 0.996078 1.000000
