images/LUT_PRESETSSTORE.cube
#Generated by Presets Store
#https://presetsstore.com
TITLE LUT_PRESETSSTORE_25
LUT_3D_SIZE 9
0.090196 0.090196 0.039216
0.137255 0.094118 0.054902
0.219608 0.094118 0.043137
0.325490 0.050980 0.011765
0.549020 0.149020 0.074510
0.662745 0.003922 0.000000
0.792157 0.031373 0.000000
0.949020 0.078431 0.011765
1.000000 0.094118 0.000000
0.121569 0.200000 0.160784
0.149020 0.180392 0.062745
0.239216 0.152941 0.019608
0.454902 0.211765 0.054902
0.466667 0.160784 0.015686
0.650980 0.149020 0.000000
0.749020 0.054902 0.000000
0.964706 0.121569 0.000000
1.000000 0.141176 0.000000
0.000000 0.235294 0.094118
0.039216 0.243137 0.070588
0.160784 0.164706 0.094118
0.372549 0.247059 0.113725
0.474510 0.223529 0.000000
0.643137 0.278431 0.000000
0.807843 0.258824 0.000000
0.964706 0.262745 0.000000
0.996078 0.094118 0.000000
0.000000 0.400000 0.180392
0.000000 0.392157 0.164706
0.000000 0.317647 0.113725
0.313725 0.333333 0.223529
0.392157 0.321569 0.152941
0.662745 0.415686 0.160784
0.835294 0.403922 0.070588
0.996078 0.435294 0.152941
1.000000 0.352941 0.011765
0.000000 0.545098 0.188235
0.000000 0.501961 0.243137
0.000000 0.498039 0.235294
0.215686 0.403922 0.133333
0.411765 0.435294 0.305882
0.529412 0.462745 0.352941
0.780392 0.549020 0.317647
0.827451 0.478431 0.125490
1.000000 0.529412 0.227451
0.000000 0.615686 0.278431
0.000000 0.596078 0.243137
0.000000 0.635294 0.270588
0.000000 0.615686 0.282353
0.392157 0.572549 0.313725
0.568627 0.552941 0.360784
0.615686 0.517647 0.400000
0.788235 0.600000 0.345098
1.000000 0.662745 0.423529
0.000000 0.764706 0.419608
0.000000 0.737255 0.360784
0.000000 0.764706 0.372549
0.000000 0.780392 0.376471
0.200000 0.713725 0.313725
0.521569 0.674510 0.396078
0.729412 0.705882 0.564706
0.756863 0.698039 0.584314
0.862745 0.745098 0.580392
0.000000 0.890196 0.560784
0.000000 0.835294 0.415686
0.000000 0.866667 0.462745
0.000000 0.909804 0.482353
0.003922 0.866667 0.443137
0.490196 0.862745 0.486275
0.737255 0.894118 0.600000
0.827451 0.803922 0.611765
0.968627 0.843137 0.662745
0.000000 1.000000 0.666667
0.000000 0.968627 0.572549
0.000000 0.960784 0.576471
0.000000 0.894118 0.470588
0.000000 0.960784 0.513725
0.458824 0.933333 0.521569
0.764706 0.972549 0.690196
0.847059 0.894118 0.705882
1.000000 0.960784 0.807843
0.098039 0.074510 0.090196
0.172549 0.109804 0.137255
0.227451 0.070588 0.098039
0.341176 0.000000 0.062745
0.517647 0.000000 0.054902
0.678431 0.000000 0.090196
0.854902 0.000000 0.090196
0.937255 0.000000 0.074510
0.988235 0.000000 0.000000
0.101961 0.196078 0.152941
0.113725 0.129412 0.090196
0.235294 0.117647 0.086275
0.403922 0.168627 0.082353
0.576471 0.129412 0.082353
0.733333 0.129412 0.109804
0.803922 0.023529 0.000000
0.952941 0.054902 0.113725
1.000000 0.105882 0.160784
0.000000 0.254902 0.125490
0.015686 0.219608 0.078431
0.239216 0.231373 0.172549
0.352941 0.247059 0.129412
0.576471 0.294118 0.152941
0.729412 0.317647 0.152941
0.854902 0.278431 0.082353
0.988235 0.270588 0.117647
1.000000 0.196078 0.101961
0.000000 0.415686 0.266667
0.000000 0.360784 0.156863
0.121569 0.376471 0.192157
0.329412 0.364706 0.227451
0.454902 0.372549 0.239216
0.674510 0.403922 0.192157
0.807843 0.380392 0.133333
0.929412 0.419608 0.137255
1.000000 0.388235 0.105882
0.000000 0.466667 0.168627
0.000000 0.552941 0.321569
0.000000 0.537255 0.247059
0.286275 0.447059 0.258824
0.458824 0.450980 0.329412
0.560784 0.490196 0.388235
0.803922 0.588235 0.372549
0.890196 0.560784 0.227451
1.000000 0.537255 0.298039
0.000000 0.623529 0.321569
0.000000 0.654902 0.321569
0.000000 0.576471 0.235294
0.000000 0.600000 0.235294
0.427451 0.584314 0.349020
0.533333 0.513725 0.352941
0.670588 0.564706 0.447059
0.858824 0.654902 0.435294
0.952941 0.654902 0.309804
0.000000 0.839216 0.482353
0.000000 0.705882 0.396078
0.000000 0.694118 0.325490
0.000000 0.749020 0.368627
0.270588 0.705882 0.360784
0.592157 0.733333 0.458824
0.647059 0.635294 0.482353
0.760784 0.713725 0.596078
0.976471 0.784314 0.650980
0.000000 0.886275 0.572549
0.000000 0.882353 0.439216
0.000000 0.815686 0.537255
0.000000 0.800000 0.403922
0.031373 0.874510 0.498039
0.470588 0.784314 0.403922
0.674510 0.807843 0.537255
0.807843 0.800000 0.619608
0.968627 0.792157 0.627451
0.000000 0.960784 0.556863
0.000000 0.925490 0.560784
0.000000 0.901961 0.521569
0.000000 0.956863 0.545098
0.145098 0.960784 0.556863
0.482353 0.980392 0.619608
0.666667 0.925490 0.639216
0.905882 0.945098 0.741176
0.984314 0.937255 0.776471
0.098039 0.039216 0.207843
0.141176 0.015686 0.188235
0.247059 0.039216 0.223529
0.345098 0.000000 0.207843
0.580392 0.000000 0.227451
0.678431 0.000000 0.188235
0.862745 0.000000 0.247059
0.898039 0.000000 0.164706
1.000000 0.000000 0.278431
0.113725 0.184314 0.247059
0.176471 0.164706 0.270588
0.235294 0.094118 0.184314
0.388235 0.113725 0.207843
0.525490 0.062745 0.180392
0.662745 0.023529 0.172549
0.788235 0.000000 0.168627
0.933333 0.105882 0.149020
1.000000 0.054902 0.219608
0.145098 0.290196 0.254902
0.156863 0.262745 0.207843
0.278431 0.282353 0.247059
0.415686 0.239216 0.200000
0.564706 0.239216 0.200000
0.690196 0.266667 0.176471
0.807843 0.239216 0.203922
0.968627 0.286275 0.235294
1.000000 0.231373 0.203922
0.000000 0.411765 0.321569
0.000000 0.411765 0.258824
0.192157 0.388235 0.270588
0.349020 0.364706 0.282353
0.580392 0.443137 0.329412
0.713725 0.435294 0.266667
0.803922 0.376471 0.196078
0.941176 0.360784 0.172549
1.000000 0.427451 0.266667
0.000000 0.494118 0.290196
0.000000 0.509804 0.321569
0.000000 0.505882 0.278431
0.337255 0.549020 0.372549
0.490196 0.509804 0.415686
0.627451 0.549020 0.450980
0.796078 0.549020 0.352941
0.956863 0.564706 0.321569
1.000000 0.549020 0.282353
0.000000 0.650980 0.364706
0.000000 0.662745 0.392157
0.000000 0.592157 0.298039
0.043137 0.611765 0.294118
0.447059 0.596078 0.352941
0.650980 0.603922 0.478431
0.733333 0.623529 0.525490
0.858824 0.670588 0.427451
0.980392 0.643137 0.364706
0.000000 0.776471 0.490196
0.000000 0.784314 0.443137
0.000000 0.784314 0.447059
0.000000 0.788235 0.454902
0.384314 0.784314 0.486275
0.572549 0.682353 0.470588
0.717647 0.694118 0.560784
0.784314 0.725490 0.619608
0.964706 0.800000 0.631373
0.000000 0.909804 0.545098
0.000000 0.854902 0.505882
0.000000 0.929412 0.521569
0.000000 0.890196 0.517647
0.176471 0.850980 0.478431
0.537255 0.874510 0.545098
0.745098 0.847059 0.568627
0.819608 0.788235 0.623529
0.952941 0.796078 0.690196
0.000000 1.000000 0.600000
0.000000 1.000000 0.607843
0.000000 1.000000 0.658824
0.000000 1.000000 0.639216
0.317647 0.968627 0.611765
0.513725 1.000000 0.639216
0.717647 0.949020 0.631373
0.839216 0.925490 0.686275
0.952941 0.929412 0.796078
0.074510 0.043137 0.317647
0.141176 0.027451 0.321569
0.231373 0.000000 0.309804
0.384314 0.000000 0.333333
0.545098 0.000000 0.349020
0.764706 0.000000 0.411765
0.819608 0.000000 0.317647
0.941176 0.000000 0.298039
1.000000 0.000000 0.396078
0.023529 0.098039 0.309804
0.113725 0.113725 0.376471
0.282353 0.121569 0.384314
0.403922 0.070588 0.360784
0.560784 0.000000 0.349020
0.654902 0.000000 0.309804
0.874510 0.019608 0.356863
0.937255 0.003922 0.313725
1.000000 0.000000 0.313725
0.000000 0.207843 0.313725
0.082353 0.235294 0.337255
0.215686 0.207843 0.301961
0.403922 0.243137 0.337255
0.521569 0.192157 0.329412
0.639216 0.180392 0.282353
0.866667 0.254902 0.356863
0.976471 0.247059 0.333333
1.000000 0.227451 0.313725
0.180392 0.392157 0.368627
0.219608 0.392157 0.384314
0.333333 0.400000 0.372549
0.458824 0.439216 0.392157
0.556863 0.396078 0.384314
0.654902 0.352941 0.321569
0.917647 0.482353 0.415686
0.968627 0.403922 0.360784
1.000000 0.396078 0.364706
0.121569 0.525490 0.407843
0.227451 0.588235 0.474510
0.262745 0.564706 0.419608
0.415686 0.537255 0.431373
0.474510 0.470588 0.392157
0.627451 0.533333 0.403922
0.823529 0.541176 0.411765
0.941176 0.521569 0.349020
1.000000 0.509804 0.384314
0.000000 0.666667 0.474510
0.129412 0.690196 0.494118
0.192157 0.666667 0.454902
0.298039 0.623529 0.427451
0.462745 0.596078 0.431373
0.576471 0.556863 0.450980
0.796078 0.682353 0.568627
0.858824 0.635294 0.470588
0.996078 0.635294 0.325490
0.000000 0.752941 0.525490
0.000000 0.741176 0.521569
0.125490 0.815686 0.537255
0.145098 0.752941 0.470588
0.325490 0.756863 0.498039
0.611765 0.729412 0.525490
0.737255 0.709804 0.588235
0.835294 0.807843 0.686275
0.937255 0.768627 0.576471
0.000000 0.882353 0.592157
0.000000 0.886275 0.549020
0.000000 0.886275 0.549020
0.000000 0.862745 0.525490
0.266667 0.870588 0.529412
0.494118 0.800000 0.525490
0.737255 0.807843 0.592157
0.850980 0.815686 0.678431
0.921569 0.823529 0.721569
0.000000 1.000000 0.666667
0.207843 0.984314 0.607843
0.137255 0.992157 0.682353
0.117647 0.952941 0.600000
0.356863 0.984314 0.623529
0.501961 0.984314 0.635294
0.721569 0.960784 0.670588
0.854902 0.921569 0.725490
0.941176 0.905882 0.768627
0.086275 0.023529 0.470588
0.109804 0.003922 0.443137
0.231373 0.000000 0.450980
0.364706 0.000000 0.458824
0.486275 0.000000 0.447059
0.670588 0.000000 0.490196
0.819608 0.000000 0.486275
0.992157 0.000000 0.498039
1.000000 0.000000 0.478431
0.000000 0.058824 0.443137
0.117647 0.090196 0.478431
0.243137 0.015686 0.462745
0.384314 0.000000 0.466667
0.623529 0.000000 0.552941
0.721569 0.000000 0.482353
0.956863 0.000000 0.549020
0.976471 0.000000 0.494118
1.000000 0.000000 0.501961
0.000000 0.188235 0.427451
0.007843 0.223529 0.423529
0.184314 0.215686 0.474510
0.454902 0.219608 0.533333
0.560784 0.172549 0.478431
0.721569 0.176471 0.474510
0.894118 0.223529 0.509804
1.000000 0.247059 0.490196
1.000000 0.223529 0.505882
0.000000 0.360784 0.450980
0.074510 0.400000 0.525490
0.188235 0.313725 0.427451
0.419608 0.388235 0.498039
0.576471 0.349020 0.490196
0.686275 0.356863 0.450980
0.843137 0.396078 0.505882
1.000000 0.400000 0.486275
1.000000 0.372549 0.470588
0.172549 0.525490 0.501961
0.250980 0.560784 0.494118
0.270588 0.498039 0.423529
0.521569 0.611765 0.560784
0.537255 0.498039 0.431373
0.698039 0.552941 0.494118
0.796078 0.486275 0.458824
0.964706 0.513725 0.517647
1.000000 0.498039 0.458824
0.266667 0.643137 0.505882
0.243137 0.647059 0.505882
0.325490 0.654902 0.529412
0.392157 0.658824 0.529412
0.486275 0.627451 0.517647
0.592157 0.576471 0.501961
0.737255 0.627451 0.529412
0.988235 0.725490 0.572549
1.000000 0.627451 0.552941
0.270588 0.760784 0.568627
0.254902 0.741176 0.576471
0.294118 0.756863 0.552941
0.384314 0.784314 0.596078
0.474510 0.764706 0.576471
0.647059 0.780392 0.619608
0.741176 0.729412 0.619608
0.886275 0.827451 0.713725
1.000000 0.831373 0.713725
0.137255 0.886275 0.639216
0.066667 0.870588 0.588235
0.176471 0.854902 0.631373
0.333333 0.878431 0.627451
0.309804 0.835294 0.564706
0.505882 0.858824 0.572549
0.756863 0.839216 0.658824
0.835294 0.811765 0.678431
0.929412 0.819608 0.713725
0.207843 1.000000 0.654902
0.356863 0.964706 0.698039
0.333333 0.988235 0.709804
0.298039 0.968627 0.654902
0.415686 0.988235 0.670588
0.541176 0.988235 0.686275
0.686275 0.933333 0.666667
0.882353 0.941176 0.784314
0.945098 0.917647 0.803922
0.019608 0.000000 0.549020
0.062745 0.007843 0.556863
0.266667 0.000000 0.584314
0.376471 0.000000 0.580392
0.529412 0.000000 0.603922
0.698039 0.000000 0.658824
0.811765 0.000000 0.572549
0.941176 0.000000 0.603922
1.000000 0.000000 0.717647
0.019608 0.007843 0.517647
0.066667 0.074510 0.631373
0.176471 0.000000 0.560784
0.364706 0.000000 0.607843
0.541176 0.000000 0.635294
0.670588 0.000000 0.580392
0.796078 0.000000 0.552941
1.000000 0.000000 0.639216
1.000000 0.000000 0.631373
0.000000 0.243137 0.572549
0.000000 0.235294 0.611765
0.286275 0.239216 0.635294
0.435294 0.235294 0.678431
0.537255 0.113725 0.592157
0.741176 0.192157 0.607843
0.843137 0.137255 0.568627
0.976471 0.145098 0.584314
1.000000 0.192157 0.635294
0.000000 0.352941 0.576471
0.000000 0.376471 0.607843
0.215686 0.372549 0.631373
0.298039 0.254902 0.537255
0.560784 0.305882 0.607843
0.749020 0.364706 0.635294
0.843137 0.309804 0.572549
0.941176 0.341176 0.556863
1.000000 0.380392 0.596078
0.000000 0.501961 0.541176
0.207843 0.501961 0.584314
0.286275 0.529412 0.592157
0.392157 0.486275 0.560784
0.545098 0.478431 0.568627
0.717647 0.490196 0.615686
0.839216 0.525490 0.576471
0.941176 0.509804 0.584314
1.000000 0.478431 0.584314
0.235294 0.607843 0.560784
0.380392 0.666667 0.627451
0.372549 0.639216 0.588235
0.490196 0.674510 0.627451
0.588235 0.678431 0.627451
0.666667 0.647059 0.600000
0.858824 0.678431 0.643137
0.964706 0.650980 0.623529
0.984314 0.584314 0.533333
0.364706 0.756863 0.658824
0.380392 0.745098 0.592157
0.513725 0.803922 0.666667
0.454902 0.737255 0.584314
0.560784 0.776471 0.623529
0.678431 0.756863 0.647059
0.803922 0.772549 0.686275
0.890196 0.792157 0.690196
1.000000 0.764706 0.670588
0.360784 0.866667 0.694118
0.458824 0.886275 0.705882
0.407843 0.909804 0.674510
0.509804 0.886275 0.701961
0.509804 0.878431 0.678431
0.611765 0.890196 0.686275
0.784314 0.898039 0.725490
0.882353 0.866667 0.741176
0.925490 0.843137 0.694118
0.439216 0.980392 0.725490
0.380392 0.988235 0.764706
0.462745 1.000000 0.764706
0.482353 1.000000 0.760784
0.525490 0.996078 0.756863
0.592157 0.968627 0.721569
0.717647 0.992157 0.745098
0.890196 0.956863 0.815686
0.874510 0.854902 0.749020
0.086275 0.007843 0.678431
0.039216 0.000000 0.650980
0.250980 0.000000 0.686275
0.368627 0.000000 0.682353
0.513725 0.000000 0.701961
0.674510 0.000000 0.729412
0.803922 0.000000 0.713725
0.917647 0.000000 0.698039
1.000000 0.000000 0.760784
0.011765 0.000000 0.666667
0.035294 0.000000 0.615686
0.200000 0.000000 0.721569
0.341176 0.000000 0.690196
0.529412 0.000000 0.733333
0.690196 0.000000 0.745098
0.827451 0.000000 0.709804
0.933333 0.000000 0.682353
1.000000 0.000000 0.764706
0.000000 0.188235 0.670588
0.000000 0.172549 0.698039
0.188235 0.168627 0.678431
0.364706 0.117647 0.682353
0.568627 0.117647 0.729412
0.737255 0.113725 0.776471
0.835294 0.003922 0.717647
0.992157 0.050980 0.713725
1.000000 0.105882 0.721569
0.000000 0.352941 0.705882
0.000000 0.341176 0.682353
0.262745 0.376471 0.780392
0.372549 0.305882 0.713725
0.564706 0.294118 0.733333
0.725490 0.290196 0.749020
0.890196 0.286275 0.717647
1.000000 0.345098 0.741176
1.000000 0.301961 0.678431
0.043137 0.525490 0.729412
0.000000 0.486275 0.705882
0.176471 0.466667 0.678431
0.368627 0.470588 0.717647
0.513725 0.427451 0.717647
0.701961 0.443137 0.749020
0.807843 0.423529 0.690196
0.980392 0.505882 0.741176
1.000000 0.419608 0.721569
0.164706 0.627451 0.701961
0.243137 0.607843 0.690196
0.239216 0.639216 0.678431
0.376471 0.619608 0.678431
0.525490 0.635294 0.694118
0.654902 0.611765 0.686275
0.913725 0.678431 0.796078
0.937255 0.596078 0.682353
1.000000 0.662745 0.674510
0.207843 0.694118 0.576471
0.450980 0.780392 0.729412
0.447059 0.729412 0.674510
0.529412 0.745098 0.698039
0.631373 0.768627 0.729412
0.749020 0.796078 0.756863
0.847059 0.788235 0.745098
0.960784 0.741176 0.717647
1.000000 0.772549 0.737255
0.490196 0.921569 0.827451
0.423529 0.847059 0.694118
0.529412 0.854902 0.760784
0.603922 0.878431 0.745098
0.662745 0.898039 0.741176
0.674510 0.901961 0.745098
0.831373 0.894118 0.780392
0.945098 0.878431 0.819608
0.929412 0.854902 0.721569
0.482353 0.960784 0.701961
0.596078 1.000000 0.811765
0.588235 0.996078 0.811765
0.619608 1.000000 0.827451
0.611765 1.000000 0.823529
0.670588 0.972549 0.796078
0.764706 0.988235 0.788235
0.925490 0.996078 0.835294
1.000000 0.992157 0.921569
0.011765 0.000000 0.792157
0.145098 0.000000 0.831373
0.243137 0.000000 0.839216
0.396078 0.000000 0.835294
0.560784 0.000000 0.882353
0.650980 0.000000 0.854902
0.843137 0.000000 0.874510
0.941176 0.000000 0.823529
1.000000 0.000000 0.854902
0.015686 0.000000 0.843137
0.015686 0.000000 0.827451
0.156863 0.000000 0.819608
0.352941 0.000000 0.839216
0.541176 0.000000 0.878431
0.658824 0.000000 0.827451
0.815686 0.000000 0.819608
0.988235 0.000000 0.862745
1.000000 0.000000 0.850980
0.000000 0.164706 0.854902
0.000000 0.082353 0.764706
0.137255 0.078431 0.796078
0.305882 0.035294 0.803922
0.521569 0.000000 0.866667
0.709804 0.000000 0.878431
0.800000 0.000000 0.819608
0.917647 0.000000 0.784314
1.000000 0.000000 0.800000
0.000000 0.298039 0.752941
0.000000 0.270588 0.788235
0.000000 0.215686 0.768627
0.321569 0.278431 0.858824
0.541176 0.278431 0.866667
0.670588 0.262745 0.862745
0.815686 0.176471 0.815686
0.929412 0.160784 0.819608
1.000000 0.231373 0.811765
0.000000 0.443137 0.807843
0.000000 0.439216 0.854902
0.000000 0.450980 0.819608
0.219608 0.392157 0.788235
0.431373 0.392157 0.807843
0.654902 0.427451 0.878431
0.780392 0.364706 0.823529
1.000000 0.435294 0.870588
1.000000 0.372549 0.741176
0.000000 0.627451 0.850980
0.000000 0.541176 0.776471
0.000000 0.588235 0.819608
0.286275 0.600000 0.819608
0.470588 0.623529 0.843137
0.627451 0.607843 0.850980
0.784314 0.545098 0.835294
0.980392 0.603922 0.874510
0.980392 0.552941 0.788235
0.231373 0.831373 0.929412
0.266667 0.756863 0.815686
0.298039 0.745098 0.815686
0.443137 0.784314 0.839216
0.525490 0.772549 0.843137
0.690196 0.772549 0.858824
0.827451 0.749020 0.850980
0.933333 0.729412 0.792157
1.000000 0.709804 0.800000
0.509804 0.921569 0.890196
0.407843 0.898039 0.815686
0.329412 0.847059 0.760784
0.537255 0.886275 0.831373
0.615686 0.874510 0.823529
0.733333 0.862745 0.823529
0.850980 0.866667 0.843137
0.949020 0.905882 0.874510
0.996078 0.874510 0.843137
0.556863 0.972549 0.803922
0.596078 0.976471 0.858824
0.611765 1.000000 0.890196
0.600000 0.972549 0.839216
0.701961 0.988235 0.886275
0.737255 0.984314 0.882353
0.870588 1.000000 0.929412
0.925490 0.956863 0.886275
0.988235 0.968627 0.905882
0.011765 0.007843 0.941176
0.015686 0.007843 0.956863
0.247059 0.000000 0.992157
0.345098 0.000000 0.972549
0.490196 0.000000 0.949020
0.658824 0.000000 0.984314
0.776471 0.000000 0.964706
0.945098 0.000000 0.984314
1.000000 0.000000 0.992157
0.011765 0.000000 0.952941
0.007843 0.000000 0.956863
0.176471 0.007843 1.000000
0.341176 0.000000 0.992157
0.466667 0.000000 0.988235
0.615686 0.000000 0.949020
0.815686 0.000000 1.000000
0.874510 0.000000 0.941176
1.000000 0.000000 0.992157
0.000000 0.062745 0.960784
0.000000 0.047059 0.988235
0.160784 0.039216 1.000000
0.309804 0.000000 1.000000
0.498039 0.000000 0.980392
0.631373 0.000000 0.949020
0.796078 0.000000 0.980392
0.960784 0.000000 0.972549
1.000000 0.000000 0.941176
0.000000 0.258824 0.968627
0.000000 0.278431 0.968627
0.000000 0.247059 0.960784
0.352941 0.270588 1.000000
0.435294 0.152941 0.952941
0.627451 0.196078 1.000000
0.776471 0.070588 0.976471
0.964706 0.160784 1.000000
1.000000 0.078431 0.956863
0.000000 0.407843 0.964706
0.000000 0.368627 0.925490
0.000000 0.427451 0.964706
0.215686 0.462745 1.000000
0.403922 0.352941 0.984314
0.623529 0.388235 1.000000
0.788235 0.368627 1.000000
0.956863 0.352941 1.000000
1.000000 0.329412 0.956863
0.000000 0.568627 0.984314
0.000000 0.592157 1.000000
0.000000 0.592157 1.000000
0.070588 0.580392 0.984314
0.388235 0.552941 0.976471
0.525490 0.474510 0.941176
0.788235 0.545098 1.000000
0.890196 0.505882 0.945098
1.000000 0.533333 1.000000
0.000000 0.764706 0.992157
0.000000 0.772549 1.000000
0.000000 0.666667 0.925490
0.278431 0.717647 0.992157
0.462745 0.729412 1.000000
0.580392 0.725490 0.968627
0.666667 0.631373 0.913725
0.929412 0.721569 0.992157
1.000000 0.717647 0.992157
0.117647 0.909804 0.972549
0.172549 0.870588 0.952941
0.301961 0.874510 0.949020
0.356863 0.847059 0.960784
0.482353 0.858824 0.956863
0.666667 0.898039 0.980392
0.745098 0.823529 0.937255
0.937255 0.882353 0.976471
1.000000 0.866667 0.941176
0.478431 1.000000 0.992157
0.474510 1.000000 0.949020
0.580392 0.996078 0.988235
0.588235 1.000000 0.980392
0.643137 1.000000 0.964706
0.749020 1.000000 0.972549
0.850980 0.988235 0.949020
0.937255 0.996078 0.988235
1.000000 0.996078 1.000000
